img/icons/i-email.svg

<svg xmlns="http://www.w3.org/2000/svg" viewBox="0 0 256 256" enable-background="new 0 0 256 256"><path fill="#7CC2E6" d="M255 234.3c0 11.5-9.3 20.7-20.7 20.7h-212.6c-11.4 0-20.7-9.3-20.7-20.7v-212.6c0-11.4 9.3-20.7 20.7-20.7h212.5c11.5 0 20.7 9.3 20.7 20.7v212.6z"/><g fill="#fff"><path d="M220.9 58.5h-185.8l92.9 79.8zM136.3 151.7c-2.3 2.1-5.2 3.3-8.3 3.3-3.1 0-6-1.2-8.3-3.3l-90.2-77.5v108c0 3.1 2.5 5.7 5.7 5.7h185.8c3.1 0 5.7-2.5 5.7-5.7v-108l-90.4 77.5z"/></g></svg>

<?xml version="1.0" encoding="utf-8"?>
<!-- Generator: Adobe Illustrator 17.1.0, SVG Export Plug-In . SVG Version: 6.00 Build 0)  -->
<!DOCTYPE svg PUBLIC "-//W3C//DTD SVG 1.1//EN" "http://www.w3.org/Graphics/SVG/1.1/DTD/svg11.dtd">
<svg version="1.1" id="Layer_1" xmlns="http://www.w3.org/2000/svg" xmlns:xlink="http://www.w3.org/1999/xlink" x="0px" y="0px"
	 viewBox="0 0 256 256" enable-background="new 0 0 256 256" xml:space="preserve">
<path fill="#7CC2E6" d="M255,234.3c0,11.5-9.3,20.7-20.7,20.7H21.7C10.3,255,1,245.7,1,234.3V21.7C1,10.3,10.3,1,21.7,1h212.5
	c11.5,0,20.7,9.3,20.7,20.7V234.3z"/>
<g>
	<polygon fill="#FFFFFF" points="220.9,58.5 35.1,58.5 128,138.3 	"/>
	<path fill="#FFFFFF" d="M136.3,151.7c-2.3,2.1-5.2,3.3-8.3,3.3c-3.1,0-6-1.2-8.3-3.3L29.5,74.2v108c0,3.1,2.5,5.7,5.7,5.7h185.8
		c3.1,0,5.7-2.5,5.7-5.7V74.2L136.3,151.7z"/>
</g>
<g>
</g>
<g>
</g>
<g>
</g>
<g>
</g>
<g>
</g>
<g>
</g>
<g>
</g>
<g>
</g>
<g>
</g>
<g>
</g>
<g>
</g>
<g>
</g>
<g>
</g>
<g>
</g>
<g>
</g>
</svg>
